X: 29280
T: New Phone, The
R: hornpipe
M: 4/4
K: Gmajor
Bc^c|(3ded ed Bdgf|(3ege ge ceag|fgab c'def|(3gba (3gfe dBc^c|
(3ded ed Bdgf|(3ege ge ceag|(3fed c'a fdcA|1 (3GAG FA G:|2 (3GAG FA G2 z c|
|:Be (3ege gfeg|fBba gfeb|c'bac' bagb|agfe (3^dfb B2|
Be (3ege gfeg|fBba gfeb|c'bag fdcA|1 (3GAG FA G3 c:|2 (3GAG FA G4||

